public/icons/!.svg

<svg width="38" height="34" viewBox="3 8 70 60" xmlns="http://www.w3.org/2000/svg">
  <!-- Background Shape -->
  <path d="M72.6687 64.1667 41.3073 9.625C40.1042 7.45937 36.976 7.45937 35.7729 9.625L4.33125 64.1667C3.12812 66.3323 4.65208 68.9792 7.13854 68.9792L38.5 68.9792 69.8615 68.9792C72.3479 68.9792 73.8719 66.3323 72.6687 64.1667Z" fill="#FFC000"/>
  <!-- Vertical Line -->
  <path d="M36.0938 22.4583 40.9062 22.4583 40.9062 50.5312 36.0938 50.5312 36.0938 22.4583Z" fill="#000000"/>
  <!-- Dot -->
  <path d="M38.5 61.7604C36.2542 61.7604 34.4896 59.9958 34.4896 57.75 34.4896 55.5042 36.2542 53.7396 38.5 53.7396 40.7458 53.7396 42.5104 55.5042 42.5104 57.75 42.5104 59.9958 40.7458 61.7604 38.5 61.7604Z" fill="#000000"/>
</svg>

<svg xmlns="http://www.w3.org/2000/svg" width="38" height="34" viewBox="3 8 70 60">
    <path fill="#FFC000"
        d="M72.669 64.167 41.307 9.625c-1.203-2.166-4.331-2.166-5.534 0L4.33 64.167c-1.203 2.165.321 4.812 2.808 4.812h62.723c2.486 0 4.01-2.647 2.807-4.812" />
    <path
        d="M36.094 22.458h4.812v28.073h-4.812zM38.5 61.76a3.97 3.97 0 0 1-4.01-4.01 3.97 3.97 0 0 1 4.01-4.01 3.97 3.97 0 0 1 4.01 4.01 3.97 3.97 0 0 1-4.01 4.01" />
</svg>
